X:1
T:Leken hinnes Lusia M\olmann (pols)
R:rorospols
Z:Sm\aaviltlaget, p\aa Skuddhold, Track 17
Z:(also Rorostraktom #106)
M:3/4
L:1/8
K:D
g |\
"D"~(f>e) (e<d) (3d(ef) | "Em"g2 (g<e) g>b | "D"b(f g<e) d>f | "A"(e<c) A2- A>(g |
"D"~ f>e) (e<d) (3d(ef) | "Em"g2 (g<e) g>b | "D"b(f g<e) "A7"d>f | (e<c) "D"d3 :|
|: (A |\
"D"d>)f {f}a2 a2 | "G"(ag) b2- b3/(a/ | "A"g>)(f e<a) f>d | "A/c#"(e<c) A2- A>(A |
"D"d>)f {f}a2 a2 | "G"(ag) b2- b3/(a/ | "A"g>)(f e<a) "A7"f>d | (e<c) "D"d3 :|
